X:1348
T:Crosses of Annagh, The
O:england
R:reel
H:See also "The Cottage in the Grove", #227,
H:"The Humours of Allegheny", #415
D:Molloy, Peoples, Brady
M:C|
K:Ador
EAAG A2Bd|eggd edBA|~G3B AEGE|DGBG AGED|
EAAG A2Bd|~g3d edBA|GABd gedB|1 GAAG ~A3G:|2 GAAG A2Bd||
|:eg~g2 a2ga|b2af gedB|d^cde ~g3a|bgaf gefd|
eg~g2 a2ga|b2af gedB|GABd gedB|1 GAAG A2Bd:|2 GAAG ~A3G||
